X: 11
T: Peggy Spouse MBE
C: Marian Anderson
R: strathspey
B: RSCDS 46-11 p.23
Z: 2011 John Chambers <jc:trillian.mit.edu>
M: 4/4
L: 1/8
K: D
A,2 |\
"D"D2 "A7"(3EDC "D"D>F d>c | "G"B>A G>B, "A"C<E E2 |\
"F#m"F<A A>B "Bm"FE D>A, | "Em"B,<G G>A "A7"E2 F>E |
"D"D2 "A"(3EFG "D"A>B d>c | "G"B>A G>B, "A7"C<E E2 |\
"F#m"F<A (3ABc "Bm"f>e d>D | "Em"E>D "A7"E<F "D"D2 dc ||
"Bm"B2 B>d "A"c>E "D"d>c | "G"B>c B>D "A7"C<E E2 |\
"D"A<d d<e "Bm"f<d d<f | "Em"g>f e<B "A"c2 "D"d>c |
"G"B2 B>d "A"c<E "Bm"d>c | "G"B>c d>D "A"C<E E2 |\
"D"A,<D D>F "Em"G>F E>D | "Em"(3B,CD "A7"E>C "D"D2 :|
